src/icons/vimeo.svg

<?xml version="1.0" encoding="UTF-8"?>
<svg width="18px" height="18px" viewBox="0 0 18 18" version="1.1" xmlns="http://www.w3.org/2000/svg" xmlns:xlink="http://www.w3.org/1999/xlink">
    <path d="M0,0 L18,0 L18,18 L0,18 L0,0 Z M1.96070928,6.20434423 L2.65688312,7.09199945 C2.65688312,7.09199945 3.52712016,6.41320428 3.84041024,6.41320428 C4.03501188,6.41320428 4.44957222,6.6394825 4.71064729,7.4226682 C4.97172235,8.20589339 6.07096291,12.2657884 6.13783131,12.4526486 C6.43828486,13.2923545 6.83400515,14.8544997 8.05236861,15.0807779 C9.27073206,15.3070561 10.8197248,14.071314 11.6725437,13.1662406 C12.5253626,12.2612067 15.8845021,8.39733527 16.0237289,6.08249603 C16.1524891,3.94211498 15.4503512,3.4454799 15.1360737,3.24550667 C14.5617086,2.88000158 13.6044597,2.75819288 12.6994258,3.07144346 C11.7943919,3.38469404 10.4194229,4.41161562 10.0539178,6.23910158 C10.0539178,6.23910158 11.2896599,5.78658463 11.7421769,6.22168341 C12.1946938,6.65678218 12.0728851,7.61407058 11.6899619,8.32766259 C11.3070386,9.0412546 10.227981,10.6947168 9.82763956,10.7469319 C9.42733766,10.7991469 9.11404756,10.0159217 9.06183256,9.80706162 C9.00961751,9.59820157 8.34824052,6.72641536 8.10458362,5.05557445 C7.86092673,3.38473354 6.7992478,3.1062403 6.29447635,3.1062403 C5.78974439,3.1062798 4.91950734,3.48920306 1.96070928,6.20434423 Z"></path>
</svg>

<svg viewBox="0 0 18 18" xmlns="http://www.w3.org/2000/svg">
    <path d="M0 0h18v18H0V0zm1.96 6.204l.697.888s.87-.679 1.183-.679c.195 0 .61.226.87 1.01.262.783 1.361 4.843 1.428 5.03.3.84.696 2.401 1.914 2.628 1.219.226 2.768-1.01 3.62-1.915.853-.905 4.213-4.769 4.352-7.084.128-2.14-.574-2.637-.888-2.836-.574-.366-1.532-.488-2.437-.175-.905.314-2.28 1.34-2.645 3.168 0 0 1.236-.452 1.688-.017.453.435.33 1.392-.052 2.106-.383.713-1.462 2.367-1.862 2.419-.4.052-.714-.731-.766-.94-.052-.209-.714-3.08-.957-4.751-.244-1.671-1.306-1.95-1.81-1.95-.505 0-1.375.383-4.334 3.098z"/>
</svg>
